X: 56
T:Da Fashion o da Delting Ladies
M:4/4
L:1/8
Q:120
K:D
"D"D-FAF dFAF|"G"GBAF "A7"GEE2|
"D"D-FAF dFAF|"G"GB"A7"AG "D"FD D2:|
"D"d2ef "G"ge"D"fd|fgaf "G"gf"A"ec-|
"D"d2ef "G"ge"D"fd|"A7"ABAG "D"FD D2|
"D"d2ef "G"ge"D"fd|fgaf "G"gf"A"ec-|
"D"d2ef "G"ge"D"fd|"A7"ABAG "D"FD D2||
